**kern	**kern	**dynam
*part1	*part1	*part1
*staff2	*staff1	*
*I"Piano	*	*
*clefF4	*clefG2	*
*k[]	*k[]	*
=1	=1	=1
*^	*^	*
4c#X 4e	2G;] 2g]	2gg;]	4a#X 4cc#X 4ee	.
4d; 4f	.	.	4b; 4dd 4ff	.
*v	*v	*	*	*
*	*v	*v	*
*clefG2	*	*
=	=	=
(([4g [4b-X [4ccn 4ff	([4gg [4bb-X [4cccn 4fff	pp
8g])) 8b-] 8cc] 8ee	8gg]) 8bb-] 8ccc] 8eee	.
8r	8r	.
=	=	=
([4e [4g [4b-X 4dd	([4ee [4gg [4bb-X 4ddd	.
8e]) 8g] 8b-] 8cc	8ee]) 8gg] 8bb-] 8ccc	.
8r	8r	.
*clefF4	*	*
=	=	=
([4G [4B-X [4c 4f	([4g [4b-X [4cc 4ff	.
8G]) 8B-] 8c] 8e	8g]) 8b-] 8cc] 8ee	.
8r	8r	.
=	=	=
([4E [4G [4B-X 4d	([4e [4g [4b-X 4dd	.
8E]) 8G] 8B-] 8c	8e]) 8g] 8b-] 8cc	.
8r	8r	.
=	=	=
([4A [4c 4g	([4a [4cc 4gg	.
8A]) 8c] 8f	8a]) 8cc] 8ff	.
8r	8r	.
=	=	=
([4F [4A 4d	([4f [4a 4dd	.
8F]) 8A] 8c	8f]) 8a] 8cc	.
8r	8r	.
=	=	=
*-	*-	*-
!!!system-decoration: {(s1,s2)}
